assets/images/services1-icon3.svg

<svg width="65" height="65" viewBox="0 0 65 65" fill="none" xmlns="http://www.w3.org/2000/svg">
<path d="M63.6889 7.53667H60.4504V5.38333C60.4504 5.09778 60.3367 4.82393 60.1343 4.62201C59.9318 4.4201 59.6573 4.30667 59.371 4.30667H56.1326V2.16302C56.1326 1.87747 56.0188 1.60361 55.8164 1.4017C55.6139 1.19978 55.3394 1.08635 55.0531 1.08635L50.7352 1.07666C50.4489 1.07666 50.1743 1.19009 49.9719 1.39201C49.7695 1.59392 49.6557 1.86778 49.6557 2.15333V4.30667H5.39736C3.96642 4.30837 2.59457 4.8761 1.58274 5.8853C0.570913 6.8945 0.00171405 8.26278 0 9.69001V59.2168C0.00171405 60.644 0.570913 62.0123 1.58274 63.0215C2.59457 64.0307 3.96642 64.5984 5.39736 64.6001H12.9537C13.24 64.6001 13.5145 64.4867 13.717 64.2847C13.9194 64.0828 14.0331 63.809 14.0331 63.5234V60.2934H63.6889C63.9752 60.2934 64.2497 60.18 64.4522 59.9781C64.6546 59.7762 64.7683 59.5023 64.7683 59.2168V8.61334C64.7683 8.32779 64.6546 8.05393 64.4522 7.85202C64.2497 7.6501 63.9752 7.53667 63.6889 7.53667ZM53.9736 10.7667H51.8147V8.61334H53.9736V10.7667ZM53.9736 12.92V36.6067H51.8147V12.92H53.9736ZM53.9196 38.7601L52.8941 41.8156L51.873 38.7536L53.9196 38.7601ZM53.9736 3.23753V6.46H51.8147V3.23L53.9736 3.23753ZM5.39736 6.46H49.6557V38.7601C49.6561 38.8753 49.6747 38.9897 49.7108 39.0992L51.8697 45.5592C51.9407 45.7746 52.0781 45.9622 52.2622 46.0951C52.4464 46.2281 52.6679 46.2997 52.8952 46.2997C53.1226 46.2997 53.3441 46.2281 53.5282 46.0951C53.7124 45.9622 53.8497 45.7746 53.9207 45.5592L56.0797 39.1089C56.1154 38.9994 56.1332 38.8849 56.1326 38.7697V6.46H58.2915V53.8334H5.39736C4.22563 53.8374 3.08771 54.2255 2.15894 54.9381V9.69001C2.15894 8.83336 2.50013 8.01179 3.10745 7.40605C3.71478 6.8003 4.53848 6.46 5.39736 6.46ZM62.6094 58.1401H4.31789V60.2934H11.8742V62.4468H5.39736C4.53848 62.4468 3.71478 62.1065 3.10745 61.5007C2.50013 60.895 2.15894 60.0734 2.15894 59.2168C2.15894 58.3601 2.50013 57.5385 3.10745 56.9328C3.71478 56.3271 4.53848 55.9867 5.39736 55.9867H59.371C59.6573 55.9867 59.9318 55.8733 60.1343 55.6714C60.3367 55.4695 60.4504 55.1956 60.4504 54.9101V9.69001H62.6094V58.1401Z" fill="#9C8679"/>
<path d="M7.55652 48.45H12.9539V46.2966H8.636V29.07H12.9539V26.9166H8.636V13.9966H21.5897V26.9166H17.2718V29.07H29.146V35.53H31.3049V29.07H35.6228V26.9166H23.7486V13.9966H43.1791V26.9166H39.9407V29.07H43.1791V46.2966H31.3049V39.8366H29.146V46.2966H17.2718V48.45H44.2586C44.5449 48.45 44.8194 48.3366 45.0219 48.1346C45.2243 47.9327 45.3381 47.6589 45.3381 47.3733V12.9199C45.3381 12.6344 45.2243 12.3605 45.0219 12.1586C44.8194 11.9567 44.5449 11.8433 44.2586 11.8433H7.55652C7.27023 11.8433 6.99566 11.9567 6.79322 12.1586C6.59078 12.3605 6.47705 12.6344 6.47705 12.9199V47.3733C6.47705 47.6589 6.59078 47.9327 6.79322 48.1346C6.99566 48.3366 7.27023 48.45 7.55652 48.45Z" fill="#9C8679"/>
<path d="M60.4506 62.4468H32.3843V64.6001H60.4506V62.4468Z" fill="#9C8679"/>
<path d="M37.7816 0H9.71533V2.15334H37.7816V0Z" fill="#9C8679"/>
<path d="M30.2254 62.4468H28.0664V64.6001H30.2254V62.4468Z" fill="#9C8679"/>
</svg>

<svg width="65" height="65" fill="none" xmlns="http://www.w3.org/2000/svg"><path d="M63.689 7.537H60.45V5.383a1.075 1.075 0 00-1.079-1.076h-3.238V2.163a1.075 1.075 0 00-1.08-1.077l-4.318-.01a1.08 1.08 0 00-1.08 1.077v2.154H5.398a5.41 5.41 0 00-3.814 1.578A5.383 5.383 0 000 9.69v49.527a5.383 5.383 0 001.583 3.805A5.41 5.41 0 005.397 64.6h7.557a1.08 1.08 0 001.08-1.077v-3.23h49.655a1.081 1.081 0 001.08-1.076V8.613a1.075 1.075 0 00-1.08-1.076zm-9.715 3.23h-2.16V8.613h2.16v2.154zm0 2.153v23.687h-2.16V12.92h2.16zm-.054 25.84l-1.026 3.056-1.021-3.062 2.047.006zm.054-35.522V6.46h-2.16V3.23l2.16.008zM5.397 6.46h44.259v32.3c0 .115.019.23.055.34l2.159 6.46a1.077 1.077 0 001.025.74 1.08 1.08 0 001.026-.74l2.159-6.451c.035-.11.053-.224.053-.34V6.46h2.158v47.373H5.398a5.35 5.35 0 00-3.238 1.105V9.69c0-.857.341-1.678.948-2.284a3.243 3.243 0 012.29-.946zM62.61 58.14H4.318v2.153h7.556v2.154H5.397c-.859 0-1.682-.34-2.29-.946a3.226 3.226 0 010-4.568 3.243 3.243 0 012.29-.946h53.974a1.081 1.081 0 001.08-1.077V9.69h2.158v48.45z" fill="#9C8679"/><path d="M7.557 48.45h5.397v-2.153H8.636V29.07h4.318v-2.153H8.636v-12.92H21.59v12.92h-4.318v2.153h11.874v6.46h2.159v-6.46h4.318v-2.153H23.749v-12.92h19.43v12.92h-3.238v2.153h3.238v17.227H31.305v-6.46h-2.159v6.46H17.272v2.153h26.987a1.08 1.08 0 001.08-1.077V12.92a1.075 1.075 0 00-1.08-1.077H7.557a1.08 1.08 0 00-1.08 1.077v34.453a1.075 1.075 0 001.08 1.077zM60.45 62.447H32.385V64.6h28.067v-2.153zM37.782 0H9.715v2.153h28.067V0zm-7.557 62.447h-2.159V64.6h2.16v-2.153z" fill="#9C8679"/></svg>
